dist/svg/virus.svg

<svg width="16" height="16" viewBox="0 0 16 16" fill="rgb(34, 34, 34)" xmlns="http://www.w3.org/2000/svg"><title>virus</title><path d="M4.68699 8.398C4.68599 8.422 4.68599 8.45 4.68599 8.478C4.68599 9.727 5.37599 10.814 6.39599 11.38L6.41299 11.389C6.32599 11.88 6.11799 12.312 5.82099 12.667L5.82399 12.663C4.30299 11.861 3.28499 10.291 3.28499 8.482C3.28499 8.408 3.28699 8.335 3.28999 8.262V8.272C3.42899 8.247 3.58999 8.232 3.75299 8.232C4.08799 8.232 4.40999 8.293 4.70599 8.405L4.68699 8.399V8.398ZM6.27299 5.65C6.76499 5.346 7.36099 5.165 7.99899 5.165C8.63699 5.165 9.23399 5.345 9.73999 5.658L9.72599 5.65C10.085 5.35 10.363 4.963 10.528 4.522L10.534 4.503C9.81699 4.039 8.93999 3.763 7.99899 3.763C7.05799 3.763 6.18199 4.039 5.44599 4.514L5.46499 4.503C5.63599 4.963 5.91399 5.349 6.26899 5.646L6.27299 5.65ZM14.975 13.209L14.852 13.138C14.838 13.13 14.82 13.125 14.802 13.125C14.772 13.125 14.745 13.138 14.726 13.159C14.114 13.837 13.233 14.261 12.252 14.261C10.414 14.261 8.92399 12.771 8.92399 10.933C8.92399 10.421 9.03999 9.935 9.24699 9.502L9.23799 9.522C9.24299 9.511 9.24599 9.498 9.24599 9.484C9.24599 9.451 9.22799 9.422 9.20199 9.407L8.76099 9.153C8.74499 9.144 8.72699 9.138 8.70699 9.138C8.67899 9.138 8.65299 9.149 8.63399 9.166C8.57899 9.216 8.51799 9.261 8.45099 9.297L8.44599 9.299L8.42999 9.307C8.41099 9.317 8.39199 9.326 8.37299 9.335L8.36399 9.339C8.34199 9.348 8.32099 9.357 8.29799 9.364L8.29499 9.365C8.25399 9.379 8.20399 9.392 8.15299 9.401L8.14699 9.402L8.14199 9.403C8.11866 9.40633 8.09566 9.409 8.07299 9.411L8.05299 9.412C8.03499 9.413 8.01599 9.414 7.99799 9.414L7.95899 9.413L7.92399 9.411C7.90599 9.409 7.88699 9.407 7.86899 9.404L7.84999 9.401C7.82899 9.398 7.80799 9.393 7.78699 9.388L7.77499 9.385C7.75399 9.38 7.73299 9.374 7.71199 9.367L7.69899 9.363C7.67999 9.356 7.66099 9.349 7.64199 9.341L7.62399 9.334C7.60699 9.327 7.58999 9.318 7.57399 9.31L7.55099 9.298C7.48099 9.259 7.41999 9.215 7.36499 9.165L7.36599 9.166C7.34699 9.149 7.32199 9.138 7.29399 9.138C7.27399 9.138 7.25499 9.143 7.23899 9.153L6.79799 9.407C6.77099 9.423 6.75299 9.451 6.75299 9.484C6.75299 9.498 6.75599 9.511 6.76199 9.522V9.521C6.95999 9.934 7.07599 10.42 7.07599 10.932C7.07599 12.77 5.58599 14.26 3.74799 14.26C2.76699 14.26 1.88599 13.836 1.27599 13.161L1.27299 13.158C1.25399 13.137 1.22699 13.124 1.19699 13.124C1.17799 13.124 1.16099 13.129 1.14599 13.138L1.02299 13.209C1.00099 13.221 0.985993 13.244 0.985993 13.271C0.985993 13.287 0.990993 13.301 0.999993 13.313C1.84499 14.363 3.12999 15.029 4.56999 15.029C5.93299 15.029 7.15599 14.433 7.99399 13.487L7.99799 13.482C8.83999 14.432 10.063 15.028 11.426 15.028C12.867 15.028 14.151 14.362 14.99 13.321L14.997 13.312C15.006 13.3 15.011 13.286 15.011 13.27C15.011 13.243 14.996 13.22 14.974 13.208L14.975 13.209ZM13.714 6.499C13.316 6.265 12.854 6.084 12.363 5.982L12.333 5.977C12.484 5.543 12.571 5.042 12.571 4.521C12.571 2.239 10.899 0.347 8.71299 0.004L8.68699 0.001C8.68499 0.001 8.68199 0 8.67899 0C8.63999 0 8.60899 0.031 8.60899 0.07C8.60899 0.071 8.60899 0.072 8.60899 0.072V0.214C8.60899 0.263 8.64399 0.303 8.68999 0.313H8.69099C10.209 0.643 11.329 1.975 11.329 3.568C11.329 5.306 9.99699 6.732 8.29899 6.883L8.28599 6.884C8.23999 6.888 8.20499 6.926 8.20499 6.973V7.482C8.20499 7.53 8.23599 7.571 8.27999 7.585H8.28099C8.36099 7.61 8.42999 7.643 8.49399 7.683L8.48999 7.681L8.50499 7.69C8.52299 7.701 8.53999 7.713 8.55699 7.726L8.56499 7.732C8.58399 7.746 8.60199 7.761 8.61999 7.776L8.62199 7.778C8.65999 7.812 8.69499 7.848 8.72599 7.886L8.72699 7.888L8.72999 7.892C8.74466 7.91 8.75866 7.92867 8.77199 7.948L8.78299 7.964C8.79299 7.979 8.80299 7.995 8.81199 8.011L8.82999 8.045L8.84599 8.077C8.85399 8.094 8.86099 8.111 8.86799 8.128L8.87599 8.147C8.88399 8.167 8.88999 8.187 8.89599 8.207L8.89999 8.219C8.90599 8.24 8.91099 8.261 8.91499 8.282L8.91799 8.295C8.92199 8.315 8.92499 8.335 8.92699 8.355L8.92999 8.374C8.93199 8.392 8.93299 8.411 8.93399 8.429L8.93499 8.455C8.93499 8.462 8.93499 8.47 8.93499 8.478C8.93499 8.55 8.92699 8.621 8.91099 8.688L8.91199 8.682C8.90999 8.689 8.90999 8.697 8.90999 8.705C8.90999 8.745 8.93199 8.78 8.96399 8.798H8.96499L9.40599 9.053C9.41899 9.061 9.43399 9.065 9.45099 9.065C9.48099 9.065 9.50799 9.05 9.52399 9.027C10.133 8.162 11.128 7.604 12.253 7.604C14.091 7.604 15.581 9.094 15.581 10.932C15.581 11.3 15.521 11.654 15.411 11.985L15.418 11.961C15.415 11.971 15.413 11.982 15.413 11.993C15.413 12.03 15.433 12.063 15.463 12.081L15.586 12.152C15.597 12.159 15.609 12.163 15.623 12.163C15.652 12.163 15.676 12.146 15.687 12.121C15.885 11.628 16.001 11.056 16.001 10.457C16.001 8.774 15.092 7.303 13.737 6.51L13.715 6.498L13.714 6.499ZM9.58699 11.388C9.67399 11.879 9.88199 12.311 10.179 12.666L10.176 12.662C11.697 11.86 12.715 10.29 12.715 8.482C12.715 8.408 12.713 8.335 12.71 8.262V8.272C12.571 8.247 12.41 8.232 12.247 8.232C11.912 8.232 11.591 8.293 11.294 8.405L11.313 8.399C11.314 8.423 11.314 8.451 11.314 8.479C11.314 9.728 10.624 10.815 9.60399 11.381L9.58699 11.39V11.388ZM2.08399 8.051C2.56099 7.771 3.13499 7.605 3.74799 7.605C4.87299 7.605 5.86799 8.163 6.46999 9.018L6.47699 9.029C6.49299 9.052 6.51999 9.067 6.54999 9.067C6.56599 9.067 6.58199 9.063 6.59499 9.055L7.03599 8.8C7.06899 8.781 7.08999 8.746 7.08999 8.706C7.08999 8.698 7.08899 8.69 7.08699 8.682C7.07299 8.621 7.06499 8.552 7.06499 8.479C7.06499 8.47 7.06499 8.461 7.06499 8.452V8.453L7.06599 8.436C7.06699 8.415 7.06799 8.394 7.07099 8.372L7.07199 8.362C7.07499 8.339 7.07799 8.316 7.08299 8.293L7.08399 8.29C7.08899 8.265 7.09499 8.241 7.10199 8.217C7.10933 8.19233 7.11733 8.16833 7.12599 8.145L7.12799 8.14C7.13599 8.118 7.14499 8.097 7.15499 8.076L7.16399 8.058C7.17199 8.042 7.17999 8.026 7.18999 8.01L7.21099 7.977L7.22999 7.947C7.24099 7.932 7.25199 7.917 7.26299 7.902L7.27499 7.887C7.28899 7.87 7.30299 7.854 7.31699 7.839L7.32499 7.83C7.33999 7.814 7.35599 7.8 7.37199 7.785L7.38199 7.776C7.39699 7.763 7.41299 7.75 7.42899 7.738L7.44499 7.726C7.45999 7.715 7.47499 7.705 7.49099 7.695L7.51299 7.681C7.57299 7.644 7.64099 7.612 7.71399 7.589L7.72099 7.587C7.76499 7.573 7.79599 7.532 7.79599 7.484V6.975C7.79599 6.928 7.75999 6.89 7.71499 6.886C6.00399 6.735 4.67199 5.308 4.67199 3.571C4.67199 1.978 5.79199 0.646 7.28699 0.32L7.30899 0.316C7.35599 0.306 7.38999 0.265 7.38999 0.217V0.075C7.38999 0.074 7.38999 0.074 7.38999 0.073C7.38999 0.034 7.35899 0.003 7.31999 0.003C7.31699 0.003 7.31399 0.003 7.31099 0.004C5.09899 0.35 3.42699 2.242 3.42699 4.524C3.42699 5.045 3.51399 5.546 3.67499 6.012L3.66499 5.98C1.55899 6.417 -0.00100708 8.258 -0.00100708 10.462C-0.00100708 11.061 0.113993 11.632 0.322993 12.156L0.311993 12.125C0.322993 12.15 0.347993 12.167 0.375993 12.167C0.389993 12.167 0.402993 12.163 0.412993 12.156L0.535993 12.085C0.565993 12.067 0.585993 12.034 0.585993 11.997C0.585993 11.986 0.583993 11.975 0.580993 11.964V11.965C0.477993 11.658 0.417993 11.304 0.417993 10.936C0.417993 9.711 1.07999 8.64 2.06599 8.062L2.08199 8.054L2.08399 8.051Z" fill="rgb(34, 34, 34)" fill-opacity="1.00"/></svg>

<!-- Generated by Trend Micro Style Portal -->
<svg version="1.1" xmlns="http://www.w3.org/2000/svg" width="16" height="16" viewBox="0 0 16 16">
  <title>virus</title>
  <path fill="rgb(34,34,34)" d="M4.687 8.398c-0.001 0.024-0.001 0.052-0.001 0.080 0 1.249 0.69 2.336 1.71 2.902l0.017 0.009c-0.087 0.491-0.295 0.923-0.592 1.278l0.003-0.004c-1.521-0.802-2.539-2.372-2.539-4.181 0-0.074 0.002-0.147 0.005-0.22v0.010c0.139-0.025 0.3-0.040 0.463-0.040 0.335 0 0.657 0.061 0.953 0.173l-0.019-0.006zM6.273 5.65c0.492-0.304 1.088-0.485 1.726-0.485s1.235 0.18 1.741 0.493l-0.014-0.008c0.359-0.3 0.637-0.687 0.802-1.128l0.006-0.019c-0.717-0.464-1.594-0.74-2.535-0.74s-1.817 0.276-2.553 0.751l0.019-0.011c0.171 0.46 0.449 0.846 0.804 1.143l0.004 0.003zM14.975 13.209l-0.123-0.071c-0.014-0.008-0.032-0.013-0.050-0.013-0.030 0-0.057 0.013-0.076 0.034v0c-0.612 0.678-1.493 1.102-2.474 1.102-1.838 0-3.328-1.49-3.328-3.328 0-0.512 0.116-0.998 0.323-1.431l-0.009 0.020c0.005-0.011 0.008-0.024 0.008-0.038 0-0.033-0.018-0.062-0.044-0.077v0l-0.441-0.254c-0.016-0.009-0.034-0.015-0.054-0.015-0.028 0-0.054 0.011-0.073 0.028v0c-0.055 0.050-0.116 0.095-0.183 0.131l-0.005 0.002-0.016 0.008c-0.019 0.010-0.038 0.019-0.057 0.028l-0.009 0.004c-0.022 0.009-0.043 0.018-0.066 0.025l-0.003 0.001c-0.041 0.014-0.091 0.027-0.142 0.036l-0.006 0.001-0.005 0.001q-0.035 0.005-0.069 0.008l-0.020 0.001c-0.018 0.001-0.037 0.002-0.055 0.002l-0.039-0.001-0.035-0.002c-0.018-0.002-0.037-0.004-0.055-0.007l-0.019-0.003c-0.021-0.003-0.042-0.008-0.063-0.013l-0.012-0.003c-0.021-0.005-0.042-0.011-0.063-0.018l-0.013-0.004c-0.019-0.007-0.038-0.014-0.057-0.022l-0.018-0.007c-0.017-0.007-0.034-0.016-0.050-0.024l-0.023-0.012c-0.070-0.039-0.131-0.083-0.186-0.133l0.001 0.001c-0.019-0.017-0.044-0.028-0.072-0.028-0.020 0-0.039 0.005-0.055 0.015v0l-0.441 0.254c-0.027 0.016-0.045 0.044-0.045 0.077 0 0.014 0.003 0.027 0.009 0.038v-0.001c0.198 0.413 0.314 0.899 0.314 1.411 0 1.838-1.49 3.328-3.328 3.328-0.981 0-1.862-0.424-2.472-1.099l-0.003-0.003c-0.019-0.021-0.046-0.034-0.076-0.034-0.019 0-0.036 0.005-0.051 0.014v0l-0.123 0.071c-0.022 0.012-0.037 0.035-0.037 0.062 0 0.016 0.005 0.030 0.014 0.042v0c0.845 1.050 2.13 1.716 3.57 1.716 1.363 0 2.586-0.596 3.424-1.542l0.004-0.005c0.842 0.95 2.065 1.546 3.428 1.546 1.441 0 2.725-0.666 3.564-1.707l0.007-0.009c0.009-0.012 0.014-0.026 0.014-0.042 0-0.027-0.015-0.050-0.037-0.062v0zM13.714 6.499c-0.398-0.234-0.86-0.415-1.351-0.517l-0.030-0.005c0.151-0.434 0.238-0.935 0.238-1.456 0-2.282-1.672-4.174-3.858-4.517l-0.026-0.003c-0.002 0-0.005-0.001-0.008-0.001-0.039 0-0.070 0.031-0.070 0.070 0 0.001 0 0.002 0 0.002v0 0.142c0 0.049 0.035 0.089 0.081 0.099h0.001c1.518 0.33 2.638 1.662 2.638 3.255 0 1.738-1.332 3.164-3.030 3.315l-0.013 0.001c-0.046 0.004-0.081 0.042-0.081 0.089 0 0 0 0 0 0v0 0.509c0 0 0 0 0 0 0 0.048 0.031 0.089 0.075 0.103h0.001c0.080 0.025 0.149 0.058 0.213 0.098l-0.004-0.002 0.015 0.009c0.018 0.011 0.035 0.023 0.052 0.036l0.008 0.006c0.019 0.014 0.037 0.029 0.055 0.044l0.002 0.002c0.038 0.034 0.073 0.070 0.104 0.108l0.001 0.002 0.003 0.004q0.022 0.027 0.042 0.056l0.011 0.016c0.010 0.015 0.020 0.031 0.029 0.047l0.018 0.034 0.016 0.032c0.008 0.017 0.015 0.034 0.022 0.051l0.008 0.019c0.008 0.020 0.014 0.040 0.020 0.060l0.004 0.012c0.006 0.021 0.011 0.042 0.015 0.063l0.003 0.013c0.004 0.020 0.007 0.040 0.009 0.060l0.003 0.019c0.002 0.018 0.003 0.037 0.004 0.055l0.001 0.026c0 0.007 0 0.015 0 0.023 0 0.072-0.008 0.143-0.024 0.21l0.001-0.006c-0.002 0.007-0.002 0.015-0.002 0.023 0 0.040 0.022 0.075 0.054 0.093h0.001l0.441 0.255c0.013 0.008 0.028 0.012 0.045 0.012 0.030 0 0.057-0.015 0.073-0.038v0c0.609-0.865 1.604-1.423 2.729-1.423 1.838 0 3.328 1.49 3.328 3.328 0 0.368-0.060 0.722-0.17 1.053l0.007-0.024c-0.003 0.010-0.005 0.021-0.005 0.032 0 0.037 0.020 0.070 0.050 0.088v0l0.123 0.071c0.011 0.007 0.023 0.011 0.037 0.011 0.029 0 0.053-0.017 0.064-0.042v0c0.198-0.493 0.314-1.065 0.314-1.664 0-1.683-0.909-3.154-2.264-3.947l-0.022-0.012zM9.587 11.388c0.087 0.491 0.295 0.923 0.592 1.278l-0.003-0.004c1.521-0.802 2.539-2.372 2.539-4.18 0-0.074-0.002-0.147-0.005-0.22v0.010c-0.139-0.025-0.3-0.040-0.463-0.040-0.335 0-0.656 0.061-0.953 0.173l0.019-0.006c0.001 0.024 0.001 0.052 0.001 0.080 0 1.249-0.69 2.336-1.71 2.902l-0.017 0.009zM2.084 8.051c0.477-0.28 1.051-0.446 1.664-0.446 1.125 0 2.12 0.558 2.722 1.413l0.007 0.011c0.016 0.023 0.043 0.038 0.073 0.038 0.016 0 0.032-0.004 0.045-0.012v0l0.441-0.255c0.033-0.019 0.054-0.054 0.054-0.094 0-0.008-0.001-0.016-0.003-0.024v0.001c-0.014-0.061-0.022-0.131-0.022-0.204 0-0.009 0-0.018 0-0.027v0.001l0.001-0.017c0.001-0.021 0.002-0.042 0.005-0.064l0.001-0.010c0.003-0.023 0.006-0.046 0.011-0.069l0.001-0.003c0.005-0.025 0.011-0.049 0.018-0.073v0q0.011-0.037 0.024-0.072l0.002-0.005c0.008-0.022 0.017-0.043 0.027-0.064l0.009-0.018c0.008-0.016 0.016-0.032 0.026-0.048l0.021-0.033 0.019-0.030c0.011-0.015 0.022-0.030 0.033-0.045l0.012-0.015c0.014-0.017 0.028-0.033 0.042-0.048l0.008-0.009c0.015-0.016 0.031-0.030 0.047-0.045l0.010-0.009c0.015-0.013 0.031-0.026 0.047-0.038l0.016-0.012c0.015-0.011 0.030-0.021 0.046-0.031l0.022-0.014c0.060-0.037 0.128-0.069 0.201-0.092l0.007-0.002c0.044-0.014 0.075-0.055 0.075-0.103 0 0 0 0 0 0v0-0.509c0 0 0 0 0 0 0-0.047-0.036-0.085-0.081-0.089v0c-1.711-0.151-3.043-1.578-3.043-3.315 0-1.593 1.12-2.925 2.615-3.251l0.022-0.004c0.047-0.010 0.081-0.051 0.081-0.099v-0.142c0-0.001 0-0.001 0-0.002 0-0.039-0.031-0.070-0.070-0.070-0.003 0-0.006 0-0.009 0.001v0c-2.212 0.346-3.884 2.238-3.884 4.52 0 0.521 0.087 1.022 0.248 1.488l-0.010-0.032c-2.106 0.437-3.666 2.278-3.666 4.482 0 0.599 0.115 1.17 0.324 1.694l-0.011-0.031c0.011 0.025 0.036 0.042 0.064 0.042 0.014 0 0.027-0.004 0.037-0.011v0l0.123-0.071c0.030-0.018 0.050-0.051 0.050-0.088 0-0.011-0.002-0.022-0.005-0.033v0.001c-0.103-0.307-0.163-0.661-0.163-1.029 0-1.225 0.662-2.296 1.648-2.874l0.016-0.008z"></path>
</svg>
